X: 33
T: Bourre  Brot
C: D. Forges
M: 2/4
L: 1/8
R: bourree
K: Gmin
|:B3G|c3A|A>d cB|A/G/A/B/ AG|B3G|c3A|A/G/A/d/ cB|A3z:|
|:G>A BG|dc BA|G/^F/G/A/ BG|^F/E/F/G/ ^F2|
G/F/G/A/ BG|dc BA|G/^F/G/A/ G^F|G2-|Gz:|
